!!!OTL: 1877. Ringeltanz.
!!!ODT: 1871
!!!ARE: Europa, Mitteleuropa, Deutschland, Sachsen
!!!SCT: E1877
!!!TXL: @@DE
!!!YEM: Copyright 1995, estate of Helmut Schaffrath.
**kern	**text
*ICvox	*
*M2/4	*
*k[b-]	*
*F:	*
!LO:TX:a:t=Mäßig.	!
!LO:TX:a:t=Mündlich aus Sachſen 1871.	!
{8c	Es
=1	=1
8f	reg-
8g	-net
8a	auf
8b-/	der
=2	=2
4cc	Brük-
8cc}	-ke,
{8cc	es
=3	=3
4dd	iſt
4ff	ſchon
=4	=4
4cc	naß;
8r}	.
{8cc	ich
=5	=5
8cc	ha-
8b-	-be
8b-	was
8b-	ver-
=6	=6
8aL	-geſ-
8ccJ	.
8ff}	-ſen,
{8a	ich
=7	=7
4cc	weiß
4cc	nicht
=8	=8
4f	was?
4r}	.
=9||	=9||
{8f	Die-
8g	-ſe
8a	ſoll
8b-	mein
=10	=10
8cc	ei-
8cc	-gen
8cc}	ſein,
{8cc	die
=11	=11
8dd	ſoll
8dd	mir
8ff	wohl-
8dd	-ge-
=12	=12
8ddL	-fal-
8ccJ	.
8cc	-len;
8r}	.
=13	=13
{8cc	die-
8b-	-ſe
8b-	ſoll
8b-	mein
=14	=14
8a	ei-
8cc	-gen
4ff}	ſein
=15	=15
{8ee	un-
8cc	-ter
8dd	die-
8ee	-ſen
=16	=16
4ff	al-
8f}	-len.
==	==
!!!AGN: Kinder - Lied, Tanz, Ringelreihen
!!!ONB: ESAC (Essen Associative Code) Database: ERK3
!!!AMT: simple duple
!!!AIN: vox
!!!EED: Helmut Schaffrath
!!!EEV: 1.0
!!!GTL: Einige Kinderlieder. d) Spiel- und Tanzliedchen.
!!!URL-scan: https://rosdok.uni-rostock.de/mcrviewer/recordIdentifier/rosdok_ppn745177999/iview2/phys_0609.iview2?x=180.4142115147706&y=304.91387925250456&scale=0.7014306698522895&rotation=0&layout=singlePageLayout
!!!ENC: Anna Maria Matuszewska
!!!EEV: 2025/09/01
*-	*-
